;FLAVOR:Marlin
;TIME:3046
;Filament used: 4.51222m
;Layer height: 0.4
;MINX:72.2
;MINY:86.7
;MINZ:0.2
;MAXX:147.8
;MAXY:133.3
;MAXZ:10.2
;Generated with Cura_SteamEngine 4.6.1
M140 S60
M105
M190 S60
M104 S200
M105
M109 S200
M82 ;absolute extrusion mode
; -- START GCODE --
G21        ;metric values
G90        ;absolute positioning
M82        ;set extruder to absolute mode
M107       ;start with the fan off
G28 X0 Y0  ;move X/Y to min endstops
G28 Z0     ;move Z to min endstops
G1 Z1 F1000             ;move up slightly
G1 Y60.0 Z0 E9.0 F1000.0;intro line
G1 Y100.0 E21.5 F1000.0 ;continue line
G92 E0                  ;zero the extruded length again
G1 F80
;Put printing message on LCD screen
M117 Printing...
; -- end of START GCODE --
G92 E0
G92 E0
G1 F2700 E-5
;LAYER_COUNT:26
;LAYER:0
M107
;MESH:couvercle coque arriere mannette.STL
G0 F3600 X113.492 Y126.5 Z0.2
;TYPE:WALL-INNER
G1 F2700 E0
G1 F1200 X113.492 Y132.5 E0.19956
G1 X112.623 Y132.5 E0.22846
G1 X112.255 Y132.5 E0.2407
G1 X112.227 Y132.5 E0.24163
G1 X112.255 Y132.473 E0.24191
G1 X112.472 Y132.177 E0.24904
G1 X112.555 Y132.064 E0.2537
G1 X112.781 Y131.611 E0.27054
G1 X112.93 Y131.123 E0.28751
G1 X112.993 Y130.614 E0.30457
G1 X112.968 Y130.106 E0.32148
G1 X112.861 Y129.61 E0.33836
G1 X112.668 Y129.138 E0.35532
G1 X112.4 Y128.705 E0.37226
G1 X112.061 Y128.324 E0.38922
G1 X111.665 Y128.006 E0.40611
G1 X111.216 Y127.758 E0.42317
G1 X110.74 Y127.594 E0.43992
G1 X110.246 Y127.507 E0.4566
G1 X109.724 Y127.508 E0.47396
G1 X109.223 Y127.598 E0.49089
G1 X108.746 Y127.769 E0.50775
G1 X108.301 Y128.018 E0.52471
G1 X107.905 Y128.34 E0.54168
G1 X107.57 Y128.725 E0.55866
G1 X107.306 Y129.157 E0.5755
G1 X107.117 Y129.632 E0.5925
G1 X107.013 Y130.129 E0.60939
G1 X106.991 Y130.638 E0.62633
G1 X107.058 Y131.144 E0.64331
G1 X107.21 Y131.633 E0.66034
G1 X107.442 Y132.085 E0.67724
G1 X107.514 Y132.181 E0.68123
G1 X107.753 Y132.5 E0.69449
G1 X107.355 Y132.5 E0.70181
G1 X107.354 Y132.5 E0.70184
G1 X106.492 Y132.5 E0.73051
G1 X106.492 Y126.5 E0.93007
G1 X73 Y126.5 E2.04402
G1 X73 Y87.5 E3.34116
G1 X147 Y87.5 E5.80241
G1 X147 Y126.5 E7.09956
G1 X113.492 Y126.5 E8.21404
G0 F3600 X113.892 Y126.9
G1 F1200 X113.892 Y132.9 E8.4136
G1 X111.657 Y132.9 E8.48794
G1 X111.635 Y132.9 E8.48867
G1 X111.269 Y132.9 E8.50084
G1 X110.978 Y132.9 E8.51052
G1 X111.269 Y132.767 E8.51286
G1 X111.635 Y132.518 E8.523
G1 X111.65 Y132.503 E8.52369
G1 X111.952 Y132.21 E8.53768
G1 X112.212 Y131.855 E8.55232
G1 X112.408 Y131.462 E8.56692
G1 X112.537 Y131.039 E8.58163
G1 X112.592 Y130.599 E8.59638
G1 X112.57 Y130.159 E8.61103
G1 X112.477 Y129.729 E8.62567
G1 X112.31 Y129.32 E8.64036
G1 X112.078 Y128.945 E8.65503
G1 X111.784 Y128.615 E8.66973
G1 X111.441 Y128.339 E8.68437
G1 X111.053 Y128.125 E8.69911
G1 X110.639 Y127.982 E8.71367
G1 X110.212 Y127.907 E8.72809
G1 X109.76 Y127.908 E8.74313
G1 X109.326 Y127.986 E8.75779
G1 X108.912 Y128.134 E8.77242
G1 X108.527 Y128.35 E8.7871
G1 X108.184 Y128.629 E8.80181
G1 X107.894 Y128.962 E8.81649
G1 X107.665 Y129.337 E8.83111
G1 X107.501 Y129.748 E8.84583
G1 X107.411 Y130.179 E8.86047
G1 X107.392 Y130.62 E8.87515
G1 X107.45 Y131.058 E8.88985
G1 X107.582 Y131.481 E8.90458
G1 X107.783 Y131.873 E8.91924
G1 X108.045 Y132.225 E8.93383
G1 X108.337 Y132.505 E8.94729
G1 X108.363 Y132.53 E8.94849
G1 X108.732 Y132.776 E8.96324
G1 X109.008 Y132.9 E8.9733
G1 X108.732 Y132.9 E8.97454
G1 X108.363 Y132.9 E8.98187
G1 X108.326 Y132.9 E8.98306
G1 X106.092 Y132.9 E9.05736
G1 X106.092 Y126.9 E9.25692
G1 X72.6 Y126.9 E10.37087
G1 X72.6 Y87.1 E11.69463
G1 X147.4 Y87.1 E14.18248
G1 X147.4 Y126.9 E15.50624
G1 X113.892 Y126.9 E16.62072
G0 F3600 X114.292 Y127.3
;TYPE:WALL-OUTER
G1 F1200 X114.292 Y133.3 E16.82028
G1 X105.692 Y133.3 E17.10632
G1 X105.692 Y127.3 E17.30588
G1 X72.2 Y127.3 E18.41982
G1 X72.2 Y86.7 E19.77019
G1 X147.8 Y86.7 E22.28465
G1 X147.8 Y127.3 E23.63501
G1 X114.292 Y127.3 E24.74949
G0 F3600 X114.292 Y127.5
G0 X113.992 Y127.5
G0 X112.488 Y130.622
G0 X112.191 Y130.584
G1 F1200 X112.172 Y130.212 E24.76188
G1 X112.093 Y129.848 E24.77427
G1 X111.952 Y129.502 E24.7867
G1 X111.756 Y129.185 E24.79909
G1 X111.507 Y128.906 E24.81153
G1 X111.217 Y128.672 E24.82393
G1 X110.89 Y128.492 E24.83634
G1 X110.538 Y128.37 E24.84873
G1 X110.178 Y128.307 E24.86089
G1 X109.796 Y128.308 E24.87359
G1 X109.429 Y128.374 E24.886
G1 X109.078 Y128.499 E24.89839
G1 X108.753 Y128.682 E24.91079
G1 X108.463 Y128.918 E24.92323
G1 X108.218 Y129.199 E24.93563
G1 X108.024 Y129.517 E24.94802
G1 X107.885 Y129.864 E24.96045
G1 X107.809 Y130.229 E24.97285
G1 X107.793 Y130.602 E24.98527
G1 X107.842 Y130.971 E24.99765
G1 X107.954 Y131.329 E25.01013
G1 X108.124 Y131.661 E25.02253
G1 X108.346 Y131.959 E25.03489
G1 X108.615 Y132.217 E25.04729
G1 X108.926 Y132.425 E25.05973
G1 X109.267 Y132.578 E25.07216
G1 X109.629 Y132.67 E25.08459
G1 X110.001 Y132.7 E25.097
G1 X110.373 Y132.667 E25.10942
G1 X110.733 Y132.572 E25.1218
G1 X111.072 Y132.417 E25.1342
G1 X111.381 Y132.207 E25.14663
G1 X111.649 Y131.947 E25.15905
G1 X111.869 Y131.646 E25.17145
G1 X112.035 Y131.313 E25.18382
G1 X112.144 Y130.955 E25.19627
G1 X112.191 Y130.584 E25.20871
G0 F3600 X112.181 Y130.384
G0 X112.481 Y130.371
G0 X113.102 Y129.169
;TYPE:SKIN
G1 F1200 X113.017 Y128.96 E25.21621
G1 X112.714 Y128.471 E25.23535
G1 X112.33 Y128.041 E25.25452
G1 X111.883 Y127.681 E25.27361
G1 X111.375 Y127.401 E25.2929
G1 X110.838 Y127.215 E25.3118
G1 X110.279 Y127.117 E25.33068
G1 X109.689 Y127.118 E25.3503
G1 X109.122 Y127.22 E25.36946
G1 X108.584 Y127.412 E25.38846
G1 X108.081 Y127.694 E25.40764
G1 X107.632 Y128.059 E25.42689
G1 X107.254 Y128.493 E25.44603
G1 X106.955 Y128.982 E25.4651
G1 X106.882 Y129.166 E25.47168
G1 X106.882 Y126.11 E25.57332
G1 X73.39 Y126.11 E26.68727
G1 X73.39 Y87.89 E27.95847
G1 X146.61 Y87.89 E30.39378
G1 X146.61 Y126.11 E31.66498
G1 X113.102 Y126.11 E32.77946
G1 X113.102 Y129.169 E32.88121
G0 F3600 X113.102 Y131.84
G1 F1200 X113.102 Y132.11 E32.89019
G1 X112.968 Y132.11 E32.89464
G1 X113.102 Y131.84 E32.90467
G0 F3600 X110.76 Y132.81
G0 X109.24 Y132.813
G0 X107.016 Y132.11
G1 F1200 X106.882 Y132.11 E32.90913
G1 X106.882 Y131.849 E32.91781
G1 X107.016 Y132.11 E32.92756
G0 F3600 X105.92 Y127.072
G0 X73.886 Y125.929
G1 F1200 X73.569 Y125.612 E32.94247
G0 F3600 X73.569 Y125.046
G1 F1200 X74.451 Y125.929 E32.98398
G0 F3600 X75.017 Y125.929
G1 F1200 X73.569 Y124.481 E33.05209
G0 F3600 X73.569 Y123.915
G1 F1200 X75.583 Y125.929 E33.14683
G0 F3600 X76.149 Y125.929
G1 F1200 X73.569 Y123.349 E33.26818
G0 F3600 X73.569 Y122.784
G1 F1200 X76.714 Y125.929 E33.41611
G0 F3600 X77.28 Y125.929
G1 F1200 X73.569 Y122.218 E33.59067
G0 F3600 X73.569 Y121.652
G1 F1200 X77.846 Y125.929 E33.79184
G0 F3600 X78.411 Y125.929
G1 F1200 X73.569 Y121.087 E34.0196
G0 F3600 X73.569 Y120.521
G1 F1200 X78.977 Y125.929 E34.27397
G0 F3600 X79.543 Y125.929
G1 F1200 X73.569 Y119.955 E34.55497
G0 F3600 X73.569 Y119.39
G1 F1200 X80.108 Y125.929 E34.86255
G0 F3600 X80.674 Y125.929
G1 F1200 X73.569 Y118.824 E35.19674
G0 F3600 X73.569 Y118.258
G1 F1200 X81.24 Y125.929 E35.55756
G0 F3600 X81.805 Y125.929
G1 F1200 X73.569 Y117.692 E35.94498
G0 F3600 X73.569 Y117.127
G1 F1200 X82.371 Y125.929 E36.359
G0 F3600 X82.937 Y125.929
G1 F1200 X73.569 Y116.561 E36.79964
G0 F3600 X73.569 Y115.995
G1 F1200 X83.502 Y125.929 E37.26689
G0 F3600 X84.068 Y125.929
G1 F1200 X73.569 Y115.43 E37.76073
G0 F3600 X73.569 Y114.864
G1 F1200 X84.634 Y125.929 E38.28119
G0 F3600 X85.2 Y125.929
G1 F1200 X73.569 Y114.298 E38.82828
G0 F3600 X73.569 Y113.733
G1 F1200 X85.765 Y125.929 E39.40194
G0 F3600 X86.331 Y125.929
G1 F1200 X73.569 Y113.167 E40.00222
G0 F3600 X73.569 Y112.601
G1 F1200 X86.897 Y125.929 E40.62913
G0 F3600 X87.462 Y125.929
G1 F1200 X73.569 Y112.036 E41.28262
G0 F3600 X73.569 Y111.47
G1 F1200 X88.028 Y125.929 E41.96272
G0 F3600 X88.594 Y125.929
G1 F1200 X73.569 Y110.904 E42.66945
G0 F3600 X73.569 Y110.339
G1 F1200 X89.159 Y125.929 E43.40276
G0 F3600 X89.725 Y125.929
G1 F1200 X73.569 Y109.773 E44.16269
G0 F3600 X73.569 Y109.207
G1 F1200 X90.291 Y125.929 E44.94924
G0 F3600 X90.856 Y125.929
G1 F1200 X73.569 Y108.642 E45.76237
G0 F3600 X73.569 Y108.076
G1 F1200 X91.422 Y125.929 E46.60212
G0 F3600 X91.988 Y125.929
G1 F1200 X73.569 Y107.51 E47.46849
G0 F3600 X73.569 Y106.944
G1 F1200 X92.553 Y125.929 E48.36146
G0 F3600 X93.119 Y125.929
G1 F1200 X73.569 Y106.379 E49.28104
G0 F3600 X73.569 Y105.813
G1 F1200 X93.685 Y125.929 E50.22723
G0 F3600 X94.25 Y125.929
G1 F1200 X73.569 Y105.247 E51.20003
G0 F3600 X73.569 Y104.682
G1 F1200 X94.816 Y125.929 E52.19942
G0 F3600 X95.382 Y125.929
G1 F1200 X73.569 Y104.116 E53.22544
G0 F3600 X73.569 Y103.55
G1 F1200 X95.948 Y125.929 E54.27808
G0 F3600 X96.513 Y125.929
G1 F1200 X73.569 Y102.985 E55.35729
G0 F3600 X73.569 Y102.419
G1 F1200 X97.079 Y125.929 E56.46313
G0 F3600 X97.645 Y125.929
G1 F1200 X73.569 Y101.853 E57.59559
G0 F3600 X73.569 Y101.288
G1 F1200 X98.21 Y125.929 E58.75463
G0 F3600 X98.776 Y125.929
G1 F1200 X73.569 Y100.722 E59.94029
G0 F3600 X73.569 Y100.156
G1 F1200 X99.342 Y125.929 E61.15257
G0 F3600 X99.907 Y125.929
G1 F1200 X73.569 Y99.591 E62.39143
G0 F3600 X73.569 Y99.025
G1 F1200 X100.473 Y125.929 E63.65691
G0 F3600 X101.039 Y125.929
G1 F1200 X73.569 Y98.459 E64.94902
G0 F3600 X73.569 Y97.893
G1 F1200 X101.604 Y125.929 E66.26772
G0 F3600 X102.17 Y125.929
G1 F1200 X73.569 Y97.328 E67.61302
G0 F3600 X73.569 Y96.762
G1 F1200 X102.736 Y125.929 E68.98495
G0 F3600 X103.301 Y125.929
G1 F1200 X73.569 Y96.196 E70.38347
G0 F3600 X73.569 Y95.631
G1 F1200 X103.867 Y125.929 E71.8086
G0 F3600 X104.433 Y125.929
G1 F1200 X73.569 Y95.065 E73.26035
G0 F3600 X73.569 Y94.499
G1 F1200 X104.998 Y125.929 E74.73869
G0 F3600 X105.564 Y125.929
G1 F1200 X73.569 Y93.934 E76.24364
G0 F3600 X73.569 Y93.368
G1 F1200 X106.13 Y125.929 E77.77521
G0 F3600 X106.696 Y125.929
G1 F1200 X73.569 Y92.802 E79.3334
G0 F3600 X73.569 Y92.237
G1 F1200 X108.56 Y127.228 E80.97927
G0 F3600 X108.191 Y127.424
G1 F1200 X107.062 Y126.295 E81.03238
G0 F3600 X107.062 Y126.861
G1 F1200 X107.85 Y127.649 E81.06944
G0 F3600 X107.538 Y127.902
G1 F1200 X107.062 Y127.427 E81.09181
G0 F3600 X107.062 Y127.992
G1 F1200 X107.27 Y128.2 E81.10159
G0 F3600 X108.977 Y127.079
G1 F1200 X73.569 Y91.671 E82.76708
G0 F3600 X73.569 Y91.105
G1 F1200 X109.442 Y126.978 E84.45443
G0 F3600 X109.965 Y126.936
G1 F1200 X73.569 Y90.54 E86.16639
G0 F3600 X73.569 Y89.974
G1 F1200 X110.582 Y126.987 E87.90737
G1 X110.652 Y127.057
G0 F3600 X111.368 Y127.207
G1 F1200 X73.569 Y89.408 E89.68532
G0 F3600 X73.569 Y88.843
G1 F1200 X112.922 Y128.195 E91.53634
G0 F3600 X112.922 Y127.629
G1 F1200 X73.569 Y88.277 E93.38736
G0 F3600 X73.928 Y88.07
G1 F1200 X112.922 Y127.064 E95.22152
G0 F3600 X112.922 Y126.498
G1 F1200 X74.493 Y88.07 E97.02907
G0 F3600 X75.059 Y88.07
G1 F1200 X112.922 Y125.932 E98.81001
G0 F3600 X113.484 Y125.929
G1 F1200 X75.625 Y88.07 E100.59078
G0 F3600 X76.19 Y88.07
G1 F1200 X114.049 Y125.929 E102.37155
G0 F3600 X114.615 Y125.929
G1 F1200 X76.756 Y88.07 E104.15232
G0 F3600 X77.322 Y88.07
G1 F1200 X115.181 Y125.929 E105.9331
G0 F3600 X115.747 Y125.929
G1 F1200 X77.887 Y88.07 E107.71389
G0 F3600 X78.453 Y88.07
G1 F1200 X116.312 Y125.929 E109.49466
G0 F3600 X116.878 Y125.929
G1 F1200 X79.019 Y88.07 E111.27543
G0 F3600 X79.584 Y88.07
G1 F1200 X117.444 Y125.929 E113.05623
G0 F3600 X118.009 Y125.929
G1 F1200 X80.15 Y88.07 E114.837
G0 F3600 X80.716 Y88.07
G1 F1200 X118.575 Y125.929 E116.61777
G0 F3600 X119.141 Y125.929
G1 F1200 X81.281 Y88.07 E118.39857
G0 F3600 X81.847 Y88.07
G1 F1200 X119.706 Y125.929 E120.17934
G0 F3600 X120.272 Y125.929
G1 F1200 X82.413 Y88.07 E121.96011
G0 F3600 X82.978 Y88.07
G1 F1200 X120.838 Y125.929 E123.7409
G0 F3600 X121.403 Y125.929
G1 F1200 X83.544 Y88.07 E125.52167
G0 F3600 X84.11 Y88.07
G1 F1200 X121.969 Y125.929 E127.30245
G0 F3600 X122.535 Y125.929
G1 F1200 X84.676 Y88.07 E129.08322
G0 F3600 X85.241 Y88.07
G1 F1200 X123.1 Y125.929 E130.86399
G0 F3600 X123.666 Y125.929
G1 F1200 X85.807 Y88.07 E132.64476
G0 F3600 X86.373 Y88.07
G1 F1200 X124.232 Y125.929 E134.42553
G0 F3600 X124.797 Y125.929
G1 F1200 X86.938 Y88.07 E136.2063
G0 F3600 X87.504 Y88.07
G1 F1200 X125.363 Y125.929 E137.98707
G0 F3600 X125.929 Y125.929
G1 F1200 X88.07 Y88.07 E139.76784
G0 F3600 X88.635 Y88.07
G1 F1200 X126.495 Y125.929 E141.54864
G0 F3600 X127.06 Y125.929
G1 F1200 X89.201 Y88.07 E143.32941
G0 F3600 X89.767 Y88.07
G1 F1200 X127.626 Y125.929 E145.11018
G0 F3600 X128.192 Y125.929
G1 F1200 X90.332 Y88.07 E146.89098
G0 F3600 X90.898 Y88.07
G1 F1200 X128.757 Y125.929 E148.67175
G0 F3600 X129.323 Y125.929
G1 F1200 X91.464 Y88.07 E150.45252
G0 F3600 X92.029 Y88.07
G1 F1200 X129.889 Y125.929 E152.23331
G0 F3600 X130.454 Y125.929
G1 F1200 X92.595 Y88.07 E154.01409
G0 F3600 X93.161 Y88.07
G1 F1200 X131.02 Y125.929 E155.79486
G0 F3600 X131.586 Y125.929
G1 F1200 X93.727 Y88.07 E157.57563
G0 F3600 X94.292 Y88.07
G1 F1200 X132.151 Y125.929 E159.3564
G0 F3600 X132.717 Y125.929
G1 F1200 X94.858 Y88.07 E161.13717
G0 F3600 X95.424 Y88.07
G1 F1200 X133.283 Y125.929 E162.91794
G0 F3600 X133.848 Y125.929
G1 F1200 X95.989 Y88.07 E164.69871
G0 F3600 X96.555 Y88.07
G1 F1200 X134.414 Y125.929 E166.47948
G0 F3600 X134.98 Y125.929
G1 F1200 X97.121 Y88.07 E168.26026
G0 F3600 X97.686 Y88.07
G1 F1200 X135.546 Y125.929 E170.04105
G0 F3600 X136.111 Y125.929
G1 F1200 X98.252 Y88.07 E171.82182
G0 F3600 X98.818 Y88.07
G1 F1200 X136.677 Y125.929 E173.60259
G0 F3600 X137.243 Y125.929
G1 F1200 X99.383 Y88.07 E175.38339
G0 F3600 X99.949 Y88.07
G1 F1200 X137.808 Y125.929 E177.16416
G0 F3600 X138.374 Y125.929
G1 F1200 X100.515 Y88.07 E178.94493
G0 F3600 X101.08 Y88.07
G1 F1200 X138.94 Y125.929 E180.72572
G0 F3600 X139.505 Y125.929
G1 F1200 X101.646 Y88.07 E182.5065
G0 F3600 X102.212 Y88.07
G1 F1200 X140.071 Y125.929 E184.28727
G0 F3600 X140.637 Y125.929
G1 F1200 X102.777 Y88.07 E186.06806
G0 F3600 X103.343 Y88.07
G1 F1200 X141.202 Y125.929 E187.84883
G0 F3600 X141.768 Y125.929
G1 F1200 X103.909 Y88.07 E189.6296
G0 F3600 X104.475 Y88.07
G1 F1200 X142.334 Y125.929 E191.41038
G0 F3600 X142.899 Y125.929
G1 F1200 X105.04 Y88.07 E193.19115
G0 F3600 X105.606 Y88.07
G1 F1200 X143.465 Y125.929 E194.97192
G0 F3600 X144.031 Y125.929
G1 F1200 X106.172 Y88.07 E196.75269
G0 F3600 X106.737 Y88.07
G1 F1200 X144.596 Y125.929 E198.53346
G0 F3600 X145.162 Y125.929
G1 F1200 X107.303 Y88.07 E200.31423
G0 F3600 X107.869 Y88.07
G1 F1200 X145.728 Y125.929 E202.095
G0 F3600 X146.294 Y125.929
G1 F1200 X108.434 Y88.07 E203.8758
G0 F3600 X109 Y88.07
G1 F1200 X146.429 Y125.498 E205.63632
G0 F3600 X146.429 Y124.933
G1 F1200 X109.566 Y88.07 E207.37024
G0 F3600 X110.131 Y88.07
G1 F1200 X146.429 Y124.367 E209.07757
G0 F3600 X146.429 Y123.801
G1 F1200 X110.697 Y88.07 E210.75827
G0 F3600 X111.263 Y88.07
G1 F1200 X146.429 Y123.235 E212.41234
G0 F3600 X146.429 Y122.67
G1 F1200 X111.828 Y88.07 E214.03985
G0 F3600 X112.394 Y88.07
G1 F1200 X146.429 Y122.104 E215.64072
G0 F3600 X146.429 Y121.538
G1 F1200 X112.96 Y88.07 E217.21498
G0 F3600 X113.525 Y88.07
G1 F1200 X146.429 Y120.973 E218.76266
G0 F3600 X146.429 Y120.407
G1 F1200 X114.091 Y88.07 E220.28372
G0 F3600 X114.657 Y88.07
G1 F1200 X146.429 Y119.841 E221.77815
G0 F3600 X146.429 Y119.276
G1 F1200 X115.223 Y88.07 E223.24598
G0 F3600 X115.788 Y88.07
G1 F1200 X146.429 Y118.71 E224.68722
G0 F3600 X146.429 Y118.144
G1 F1200 X116.354 Y88.07 E226.10183
G0 F3600 X116.92 Y88.07
G1 F1200 X146.429 Y117.579 E227.48984
G0 F3600 X146.429 Y117.013
G1 F1200 X117.485 Y88.07 E228.85126
G0 F3600 X118.051 Y88.07
G1 F1200 X146.429 Y116.447 E230.18605
G0 F3600 X146.429 Y115.882
G1 F1200 X118.617 Y88.07 E231.49424
G0 F3600 X119.182 Y88.07
G1 F1200 X146.429 Y115.316 E232.77583
G0 F3600 X146.429 Y114.75
G1 F1200 X119.748 Y88.07 E234.0308
G0 F3600 X120.314 Y88.07
G1 F1200 X146.429 Y114.185 E235.25917
G0 F3600 X146.429 Y113.619
G1 F1200 X120.879 Y88.07 E236.46094
G0 F3600 X121.445 Y88.07
G1 F1200 X146.429 Y113.053 E237.63609
G0 F3600 X146.429 Y112.487
G1 F1200 X122.011 Y88.07 E238.78461
G0 F3600 X122.576 Y88.07
G1 F1200 X146.429 Y111.922 E239.90656
G0 F3600 X146.429 Y111.356
